X: 17032
T: Heartstrings
R: waltz
M: 3/4
K: Cmajor
cd||e2ed c2|eg2g ge|d6-|d3G cd|e2ed c2|eg3ga|g6-|g4fg|
e2ed c2|eg2 a ge|d6-|d4cB|A4Ac|A3GE2|D6-|D3G, CD||
E2EDC2|EG3GA|G6-|G4GF|E3DC2|Gc2G GE|D6-|D3G, CD|
E2EDC2|EG3GA|_B3A AG|F3G GF|E3DC2|D2C2A,2|G,6-|G,3 G cd||
e2ed c2|eg2g ge|d6-|d3G cd|e2ed c2|eg3ga|g6-|g4fg|
e2ed c2|eg2 a ge|d6-|d4cB|A4Ac|A3GE2|D6-|D3G, CD||
E2EDC2|EG3GA|G6-|[G3_B3]c cB|A3GF2|Ac3-cd/e/|d6-|d3 g gf|
e2ed c2|eg2 a ge|d6-|d4cB|A4Ac|A3GE2|D6-|D3G cd||
e2ed c2|eg2g ge|d6-|d3G cd|e2ed c2|eg3ga|g6-|g4fg|
e2ed c2|eg2 a ge|d6-|d4cB|A4Ac|A3GE2|D6-|D2 C2D2||

